packages/match-icons/sendgrid/svg/marketing.svg

<svg fill="none" height="32" viewBox="0 0 32 32" width="32" xmlns="http://www.w3.org/2000/svg"><g stroke="#394762" stroke-linecap="round" stroke-linejoin="round" stroke-width="1.7"><path d="m1.99878 3h28.00002v26h-28.00002z"/><path d="m1.99878 9h28.00002"/><path d="m5.99878 13h8.00002v8h-8.00002z"/><path d="m5.99878 25h8.00132"/><path d="m17.9988 13h8v12h-8z"/><path d="m17.9988 19h8"/></g></svg>

<svg width="32" height="32" viewBox="0 0 32 32" fill="none" xmlns="http://www.w3.org/2000/svg">
<path d="M1.99878 3H29.9988V29H1.99878V3Z" stroke="#394762" stroke-width="1.7" stroke-linecap="round" stroke-linejoin="round"/>
<path d="M1.99878 9H29.9988" stroke="#394762" stroke-width="1.7" stroke-linecap="round" stroke-linejoin="round"/>
<path d="M5.99878 13H13.9988V21H5.99878V13Z" stroke="#394762" stroke-width="1.7" stroke-linecap="round" stroke-linejoin="round"/>
<path d="M5.99878 25H14.0001" stroke="#394762" stroke-width="1.7" stroke-linecap="round" stroke-linejoin="round"/>
<path d="M17.9988 13H25.9988V25H17.9988V13Z" stroke="#394762" stroke-width="1.7" stroke-linecap="round" stroke-linejoin="round"/>
<path d="M17.9988 19H25.9988" stroke="#394762" stroke-width="1.7" stroke-linecap="round" stroke-linejoin="round"/>
</svg>
